img/sm/nsfc.svg

<?xml version="1.0" encoding="UTF-8"?>
<svg width="801px" height="169px" viewBox="0 0 801 169" version="1.1" xmlns="http://www.w3.org/2000/svg" xmlns:xlink="http://www.w3.org/1999/xlink">
    <!-- Generator: Sketch 63.1 (92452) - https://sketch.com -->
    <title>编组</title>
    <desc>Created with Sketch.</desc>
    <g id="页面-1" stroke="none" stroke-width="1" fill="none" fill-rule="evenodd">
        <g id="编组" fill="#DCDCDC">
            <path d="M147.0305,88.0795 C145.2725,83.6585 142.8085,80.2225 139.1405,78.0965 C135.5075,75.9915 131.3745,75.1795 127.1935,76.3905 C118.7475,78.8355 114.9105,85.7835 114.9625,92.5175 C115.0285,101.0855 119.7755,105.9315 127.1985,108.6215 C130.6385,109.8695 134.3625,109.2705 137.5265,107.8615 C142.0245,105.8575 144.9785,101.9935 147.0305,97.0285 L147.0305,88.0795 Z M98.0255,168.0205 C97.6575,166.0475 97.0715,164.3635 97.0705,162.6795 C97.0215,109.2345 97.0305,55.7895 97.0355,2.3445 C97.0355,2.0285 97.1125,1.7125 97.1945,1.0855 C97.8905,0.7745 98.7335,0.0765 99.5815,0.0695 C110.0705,-0.0045 120.5595,0.0205 131.0495,0.0205 C137.1545,1.7375 143.1845,3.2215 148.7425,6.8465 C155.1295,11.0125 159.6435,16.3905 163.3195,22.7965 C166.5275,28.3885 168.0975,34.3195 168.0745,40.8265 C167.9725,69.6295 167.9125,98.4335 168.1035,127.2365 C168.1595,135.6755 165.2555,142.9455 160.7695,149.6895 C156.5835,155.9825 151.6885,160.1425 145.0915,163.3945 C139.5895,166.1075 133.8235,168.0775 127.5305,168.038098 C117.8745,167.9755 108.2175,168.0205 98.0255,168.0205 L98.0255,168.0205 Z" id="Fill-1"></path>
            <path d="M364.489,106.0326 C363.427,108.6316 362.441,110.2836 362.082,112.0616 C360.755,118.6306 358.843,125.0596 356.856,131.4206 C355.935,134.3676 355.453,137.4356 354.4,140.3746 C353.424,143.0956 352.675,146.0516 351.841,148.8436 C350.468,153.4376 349.718,158.2226 347.781,162.8486 L326.297,162.8486 C325.256,159.6996 323.89,156.3906 323.094,152.9496 C322.076,148.5526 320.588,144.2956 319.524,139.9316 C318.161,134.3416 316.295,128.9016 314.917,123.3136 C314.03,119.7166 313.145,116.0546 311.927,112.5666 C310.444,108.3166 309.293,103.9756 308.164,99.6556 C307.533,97.2416 306.548,94.9576 306.011,92.5246 C304.839,87.2056 302.753,82.1186 301.99,76.6866 C301.892,75.9886 301.239,75.3676 300.565,74.2486 C307.233,73.7906 313.461,74.1476 320.054,73.9846 C321.058,76.7826 322.454,79.4606 322.953,82.2976 C324.446,90.7686 327.098,98.9616 329.285,107.2256 C331.335,114.9716 332.887,122.9326 335.89,130.4456 C336.569,132.1446 336.658,134.0786 337.351,135.9226 C339.336,129.6076 341.499,123.4416 343.143,117.0886 C344.068,113.5096 345.124,109.9286 346.203,106.3736 C348.228,99.7036 350.59,93.1376 352.064,86.3016 C352.517,84.1986 353.244,82.1306 354.072,80.1416 C354.632,78.7976 355.082,77.5316 355.103,76.0396 C355.112,75.3746 355.905,74.7196 356.284,74.1466 L371.751,74.1466 C373.083,79.3846 374.593,84.4496 376.169,89.4666 C377.087,92.3916 377.81,95.4076 378.944,98.2996 C380.014,101.0316 380.266,104.0736 381.069,106.9246 C381.524,108.5406 382.588,109.9926 382.991,111.6156 C384.676,118.3846 386.314,125.1496 388.951,131.6476 C389.519,133.0476 388.639,135.0046 390.775,136.0166 C391.814,130.2526 393.551,124.5856 395.254,118.9836 C397.189,112.6136 398.388,106.0526 400.642,99.7516 C402.624,94.2086 403.384,88.2406 405.126,82.5956 C405.979,79.8306 405.572,76.5056 408.442,74.1976 L427.219,74.1976 C424.536,82.0366 422.675,89.8336 420.298,97.4986 C419.024,101.6076 418.112,105.9626 416.885,110.1186 C415.666,114.2516 414.107,118.4286 413.306,122.5586 C412.493,126.7506 410.452,130.4726 409.88,134.7366 C409.355,138.6536 407.322,142.3426 406.396,146.2376 C405.425,150.3256 404.457,154.3936 403.055,158.3606 C402.541,159.8156 402.306,161.3696 401.934,162.9176 L380.647,162.9176 C378.197,161.5086 379.997,158.1406 378.031,156.3506 C376.856,149.5856 374.347,143.1616 372.975,136.4376 C372.202,132.6566 370.864,128.9916 369.784,125.2736 C368.531,120.9606 367.26,116.6516 366.041,112.3286 C365.542,110.5616 365.157,108.7626 364.489,106.0326" id="Fill-3"></path>
            <path d="M66.8591,154.0209 L66.8591,14.0204781 C57.2201,14.0204781 47.7531,14.0179 38.2851,14.0279 C37.6431,14.0289 36.9411,13.9859 36.3671,14.2159 C29.4621,16.9889 22.6071,19.9229 18.7421,26.8589 C16.5591,30.7759 14.0331,34.6289 14.0321,39.3869 C14.0281,69.1859 14.0281,98.9849 14.0381,128.7849 C14.0381,129.7579 13.9111,130.8269 14.2531,131.6899 C16.9931,138.6079 19.9821,145.3969 26.8701,149.3409 C30.3571,151.3379 33.8791,153.7799 37.9181,153.9169 C47.5291,154.2409 57.1591,154.0209 66.8591,154.0209 M80.8761,0.0209 L80.8761,167.8389 C79.7961,167.8939 78.5391,168.0109 77.2821,168.0129 C65.4561,168.0269 53.6291,167.9429 41.8041,168.0469 C33.3371,168.1229 25.5621,165.6969 18.7921,160.9189 C12.4261,156.4259 6.9931,150.8029 3.8861,143.3759 C1.7561,138.2849 -0.0129,133.1479 2.88029408e-05,127.4839 C0.0661,98.3359 0.0301,69.1869 0.0301,40.0379 C0.0301,31.9819 4.2561,22.1159 9.4631,15.9239 C12.5781,12.2189 16.2071,9.3489 19.9831,6.4579 C23.8331,3.5089 28.3931,2.5989 32.7391,1.0089 C36.1931,-0.2541 39.7681,0.0289 43.3221,0.0249 C55.7891,0.0139 68.2551,0.0209 80.8761,0.0209" id="Fill-5"></path>
            <path d="M744.05,108.8471 L744.05,75.5011 C744.576,74.9751 744.929,74.6221 745.406,74.1451 L762.831,74.1451 L762.831,162.9121 L745.422,162.9121 C745.045,162.5361 744.693,162.1821 744.166,161.6571 L744.166,128.2531 L704.126,128.2531 L704.126,162.8091 L685.142,162.8091 L685.142,74.2181 L704.01,74.2181 L704.01,108.8471 L744.05,108.8471 Z" id="Fill-7"></path>
            <path d="M208.6496,156.0668 C212.5336,150.5498 214.5426,144.6838 218.2216,140.1048 C224.6186,143.3118 230.8526,145.7538 237.6576,147.1828 C244.5786,148.6358 251.4136,147.5188 258.2656,147.9818 C259.9826,148.0978 268.1966,145.1418 269.5456,143.9378 C271.4626,142.2278 272.6756,139.8258 272.9026,137.3978 C273.1146,135.1198 271.9796,133.3498 269.6046,131.7838 C266.5866,129.7928 263.3726,128.9318 260.1016,128.1138 C258.1436,127.6248 256.2706,126.5018 254.0336,126.9728 C252.1326,127.3728 250.3716,126.1498 248.4916,125.8398 C244.9366,125.2548 241.3156,124.8498 237.8066,123.9878 C234.3526,123.1398 230.9016,122.1968 227.5646,120.9798 C222.4996,119.1328 217.4116,117.0428 214.1436,112.5028 C212.3696,110.0368 210.8196,107.1398 210.1346,104.2118 C208.1116,95.5648 212.3196,87.4118 219.5876,81.6998 C224.4606,77.8688 230.0976,76.3788 235.5196,74.1968 C238.0966,73.1598 241.1676,73.2028 244.0296,73.0638 C247.6856,72.8868 251.3606,73.1428 255.0186,72.9898 C259.4496,72.8038 268.8446,75.0878 275.0636,76.4678 C278.1286,77.1488 280.8136,78.7868 284.3526,79.4538 C282.3176,84.8198 279.9366,89.9398 277.8726,95.1518 C270.9336,92.9128 264.4456,90.8438 257.5766,89.8238 C254.0086,89.2948 250.4566,88.7628 246.9836,89.1508 C243.5906,89.5308 240.1456,89.9108 236.7766,90.9248 C232.7166,92.1478 230.3586,94.6598 228.9856,98.1178 C229.6266,102.9578 233.2726,104.7118 236.7336,105.8658 C239.7886,106.8848 243.0726,107.5408 246.3256,108.1358 C254.7476,109.6788 263.2736,110.8978 271.3466,114.0078 C277.5926,116.4138 283.5456,119.3048 287.9496,124.5208 C289.6486,126.5318 291.0176,128.8408 291.0826,131.7188 C291.1136,133.0868 291.9666,134.4378 291.9856,135.8028 C292.1006,144.0048 288.1686,154.9548 278.6046,159.1808 C273.7026,161.3468 268.8226,162.9088 263.6526,164.1688 C258.4016,165.4468 253.2306,164.6538 248.0386,165.0038 C246.3806,165.1148 244.7086,165.0058 243.0436,165.0238 C235.0276,165.1058 227.4066,163.1878 219.9596,160.4368 C216.3496,159.1028 212.7776,157.6658 208.6496,156.0668" id="Fill-9"></path>
            <path d="M665.5042,92.4511 C660.4762,96.8091 655.7092,100.9421 650.7492,105.2421 C649.3072,103.4301 648.2062,101.7451 646.8142,100.3531 C642.2352,95.7781 636.9942,92.6901 630.3102,91.8431 C627.6172,91.5021 625.2442,90.8521 622.5872,91.9431 C621.4472,92.4101 619.9542,92.0211 619.0302,92.0211 C610.8022,95.3471 604.5902,100.1631 600.8962,108.2661 C598.3582,113.8321 599.4282,119.4051 599.0302,124.9921 C602.0502,134.5531 607.6802,141.6971 617.4792,145.0311 C620.4672,146.0481 623.7012,147.1401 626.6242,146.7981 C629.8182,146.4231 633.2882,146.3551 636.2882,144.9581 C639.0942,143.6521 641.8952,142.1101 644.2612,140.1451 C646.7102,138.1121 648.6342,135.4441 650.9402,132.8861 C655.5202,136.8141 660.1502,140.7851 665.0132,144.9561 L665.0132,146.0881 C663.7762,147.7921 662.6142,149.7061 661.1502,151.3501 C657.1922,155.7951 645.1622,163.5761 637.3742,165.1771 C630.6172,166.5661 623.9242,166.0761 617.2742,165.8011 C613.4582,165.6431 609.5502,163.8921 605.9002,162.0751 C600.2922,159.2821 595.0122,156.0731 590.8952,151.3131 C588.4092,148.4401 586.1972,145.3081 584.0642,142.1571 C582.2432,139.4671 581.6612,136.1761 580.1642,133.2711 C579.1332,131.2701 579.3392,128.6211 579.0382,126.2571 C578.7562,124.0541 577.8252,122.0271 577.9692,119.6711 C578.6072,109.2801 581.0142,99.6201 587.3882,91.0411 C592.2812,84.4571 598.1872,79.3841 605.5882,75.9501 C610.4742,73.6821 615.3822,71.6961 620.9582,71.9571 C622.6332,72.0351 624.4252,70.8511 626.0242,71.1091 C632.4872,72.1531 639.0642,72.5041 645.1702,75.5261 C651.1632,78.4931 656.7952,81.9361 660.3502,85.8851 C662.0522,87.7751 663.5082,89.8881 665.5042,92.4511" id="Fill-11"></path>
            <path d="M490.1145,93.1957 L490.1145,74.1867 L564.9325,74.1867 L564.9325,92.8417 L538.7755,92.8417 C538.4505,93.1287 538.3075,93.2207 538.2135,93.3487 C538.1255,93.4697 538.0375,93.6287 538.0375,93.7707 C538.0305,116.3917 538.0305,139.0127 538.0305,161.4327 C537.4295,162.0837 536.9805,162.5707 536.5675,163.0167 L518.2005,163.0167 L518.2005,93.1957 L490.1145,93.1957 Z" id="Fill-13"></path>
            <polygon id="Fill-15" points="468.8625 161.6889 467.6265 162.9249 448.2135 162.9249 448.2135 75.3379 449.4195 74.1319 467.6415 74.1319 468.8625 75.3529"></polygon>
            <path d="M728.1106,22.5131 C727.8686,27.7521 727.4206,33.0791 731.7796,37.3011 C735.1626,40.5771 739.2146,41.3431 743.7006,41.0361 C751.0716,40.5331 756.8616,32.4141 755.9456,25.4661 C755.4196,21.4701 753.4686,17.8131 749.9716,15.5451 C745.4966,12.6421 740.5816,12.1331 735.2116,14.3401 C733.0266,16.8251 729.8196,18.9701 728.1106,22.5131 M734.8306,52.1821 C720.9876,43.8841 725.2056,48.1691 717.2126,34.7951 C716.5876,32.9081 716.9976,31.2531 716.2366,29.4201 C715.0086,26.4641 716.7146,23.1881 717.4706,20.1121 C719.2306,12.9561 724.4586,8.5291 730.0916,4.4591 C733.0456,4.0911 735.4766,1.9211 738.5686,2.0151 C739.7326,2.0511 740.9056,2.1031 742.0626,2.0061 C745.9896,1.6741 749.6646,2.4581 753.0076,4.5231 C756.1966,6.4931 759.8886,7.9291 761.3696,11.8601 C766.9796,17.5201 767.6686,24.7261 766.8606,31.9651 C766.4466,35.6761 764.4396,39.3181 762.0656,42.3901 C760.4576,44.4721 758.5736,46.5251 756.3906,47.9371 C752.8666,50.2191 749.1906,52.5461 744.6206,52.0211 C741.4016,54.0441 738.1826,51.1701 734.8306,52.1821" id="Fill-17"></path>
            <path d="M571.2019,49.3495 L569.6549,50.8965 L561.1559,50.8965 L561.1559,3.2375 L570.6349,3.2375 C577.7929,12.6655 585.1399,22.3415 592.8589,32.5085 L592.8589,4.6735 C593.4939,4.0575 593.9709,3.5955 594.4339,3.1455 L602.9059,3.1455 L602.9059,50.8045 L593.5199,50.8045 C586.2869,41.0275 578.9029,31.0475 571.2019,20.6385 L571.2019,49.3495 Z" id="Fill-19"></path>
            <path d="M213.2019,3.1083 L222.6019,3.1083 C229.9089,12.8523 237.1369,22.4923 244.9389,32.8983 L244.9389,4.6123 L246.4359,3.1153 L254.8599,3.1153 L254.8599,50.9713 C252.3079,51.0923 249.5399,50.9823 246.3749,51.0343 C238.1829,41.6933 231.4779,30.8853 223.2169,20.8043 L223.2169,50.8373 C221.4769,50.9023 219.8899,50.9853 218.3019,51.0143 C216.6589,51.0443 215.0149,51.0213 213.2019,51.0213 L213.2019,3.1083 Z" id="Fill-21"></path>
            <path d="M336.2029,3.1078 L345.8199,3.1078 C352.8949,12.5278 360.2119,22.2688 368.0309,32.6788 L368.0309,28.6418 C368.0309,21.3158 368.0269,13.9908 368.0339,6.6658 C368.0359,5.3588 367.6799,3.8998 370.2769,3.1168 L377.8589,3.1168 L377.8589,50.9698 C375.3099,51.0938 372.5419,50.9818 369.2319,51.0368 C361.8529,41.1708 354.2789,31.0428 346.0639,20.0588 L346.0639,50.9248 L336.2029,50.9248 L336.2029,3.1078 Z" id="Fill-23"></path>
            <path d="M653.1057,40.0209 L666.2887,40.0209 C666.9727,39.6339 667.4957,39.2829 668.0607,39.0279 C676.8167,35.0689 678.5537,25.5249 671.9497,17.5069 C670.2167,15.4039 667.5767,14.3149 664.9467,14.1029 C661.0367,13.7869 657.0817,14.0209 653.1057,14.0209 L653.1057,40.0209 Z M643.1647,51.0209 L643.1647,3.0209 C650.2617,3.0209 657.3067,2.3609 664.1727,3.1879 C672.7147,4.2179 680.1487,7.8689 684.0527,16.3979 C684.9667,18.3949 685.9457,20.2989 686.0777,22.5739 C686.1567,23.9499 687.1457,25.3689 686.9477,26.6479 C686.3277,30.6389 686.0907,34.9039 683.9227,38.3439 C681.9227,41.5179 679.5427,44.4299 676.1397,46.6639 C671.9847,49.3899 667.5407,50.6059 662.9077,50.9129 C656.4487,51.3409 649.9407,51.0209 643.1647,51.0209 L643.1647,51.0209 Z" id="Fill-25"></path>
            <path d="M486.2058,3.1151 L521.6248,3.1151 L522.8758,4.3661 L522.8758,11.6761 C522.5218,12.0291 522.0518,12.5001 521.4158,13.1361 L496.1408,13.1361 L496.1408,21.9881 L520.9348,21.9881 L520.9348,30.8481 L496.2058,30.8481 C496.1438,32.5891 496.0648,34.1871 496.0368,35.7851 C496.0088,37.4251 496.0308,39.0661 496.0308,40.8671 L521.3778,40.8671 C522.0128,41.5031 522.4838,41.9741 522.8948,42.3861 L522.8948,49.6561 L521.6158,50.9361 L486.2058,50.9361 L486.2058,3.1151 Z" id="Fill-27"></path>
            <path d="M437.2009,50.9203 L427.4299,50.9203 C426.9759,50.4663 426.6229,50.1133 426.0999,49.5903 L426.0999,14.0703 L412.1299,14.0703 L412.1299,3.1953 L450.7159,3.1953 C450.9919,3.4823 451.4529,3.9613 451.9049,4.4303 L451.9049,12.6463 C451.4259,13.1263 451.0729,13.4793 450.5449,14.0063 L437.2009,14.0063 L437.2009,50.9203 Z" id="Fill-29"></path>
            <path d="M290.2058,4.3456 L291.3978,3.1536 L300.6638,3.1536 L301.9428,4.4326 L301.9428,49.9766 C298.6108,52.0246 294.9108,50.5066 291.5748,51.0646 L290.2058,49.6966 L290.2058,4.3456 Z" id="Fill-31"></path>
            <path d="M786.2043,149.1132 L789.0843,149.1132 C790.2083,151.7052 791.3563,154.3542 792.5723,157.1592 C793.6823,154.4252 794.7223,151.8632 795.7893,149.2332 L800.0303,149.2332 C800.0303,153.5862 800.0383,157.8792 800.0113,162.1722 C800.0093,162.4422 799.7253,162.7112 799.5493,163.0212 C799.2453,163.0212 798.8283,163.1492 798.6093,162.9952 C798.0753,162.6212 797.6323,162.1162 796.9913,161.5112 L796.9913,155.3322 C796.0803,157.2922 795.2383,158.3632 795.1403,159.4992 C795.0033,161.0702 794.8693,162.3952 792.9333,163.1222 C790.2743,162.0912 791.2633,158.7152 789.2583,156.8522 L789.2583,161.5152 C788.2993,162.1132 787.4383,162.6522 786.2043,163.4222 L786.2043,149.1132 Z" id="Fill-33"></path>
            <path d="M781.9348,149.1957 L781.9348,151.5867 C780.5178,152.1187 779.2258,152.6037 777.9088,153.0977 L777.9088,163.3147 C776.7998,162.7567 776.0278,162.3687 775.1608,161.9317 L775.1608,152.1977 C773.7668,152.0927 772.5178,151.9987 770.8038,151.8697 C771.2858,150.8387 771.6468,150.0677 772.0538,149.1957 L781.9348,149.1957 Z" id="Fill-35"></path>
            <path d="M58.0652,50.227 C58.0662,55.087 56.8172,58.63 53.9022,61.735 C50.6412,65.211 46.3442,66.737 42.0952,66.787 C38.2272,66.832 34.0232,65.608 31.0152,62.484 C27.6982,59.041 25.8622,55.086 25.9642,50.088 C26.1552,40.685 33.4492,34.26 41.9642,34.192 C49.4422,34.133 58.5802,39.464 58.0652,50.227" id="Fill-37"></path>
        </g>
    </g>
</svg>

<svg width="801" height="169" xmlns="http://www.w3.org/2000/svg"><g fill="#DCDCDC" fill-rule="evenodd"><path d="M147.03 88.08c-1.757-4.421-4.221-7.858-7.89-9.983-3.632-2.105-7.765-2.917-11.946-1.706-8.447 2.444-12.284 9.392-12.231 16.126.066 8.569 4.813 13.415 12.236 16.105 3.44 1.248 7.164.648 10.328-.76 4.498-2.004 7.452-5.868 9.504-10.834V88.08zm-49.005 79.94c-.368-1.972-.954-3.657-.955-5.34-.048-53.446-.04-106.89-.034-160.335 0-.317.076-.633.159-1.26C97.89.775 98.734.077 99.582.07 110.07-.005 120.56.02 131.05.02c6.105 1.718 12.135 3.201 17.692 6.826 6.388 4.166 10.901 9.544 14.578 15.95 3.208 5.593 4.778 11.523 4.755 18.03-.102 28.803-.162 57.607.029 86.41.055 8.44-2.849 15.71-7.335 22.454-4.186 6.292-9.08 10.453-15.678 13.704-5.502 2.713-11.268 4.683-17.56 4.644-9.657-.063-19.314-.018-29.506-.018zM364.489 106.033c-1.062 2.599-2.048 4.25-2.407 6.029-1.327 6.569-3.239 12.998-5.226 19.359-.921 2.947-1.403 6.015-2.456 8.954-.976 2.72-1.725 5.677-2.559 8.469-1.373 4.594-2.123 9.379-4.06 14.005h-21.484c-1.041-3.15-2.407-6.458-3.203-9.9-1.018-4.396-2.506-8.653-3.57-13.017-1.363-5.59-3.229-11.03-4.607-16.618-.887-3.597-1.772-7.26-2.99-10.747-1.483-4.25-2.634-8.591-3.763-12.911-.631-2.414-1.616-4.698-2.153-7.131-1.172-5.32-3.258-10.406-4.021-15.838-.098-.698-.751-1.32-1.425-2.438 6.668-.458 12.896-.101 19.489-.264 1.004 2.798 2.4 5.476 2.899 8.313 1.493 8.47 4.145 16.664 6.332 24.928 2.05 7.746 3.602 15.707 6.605 23.22.679 1.699.768 3.633 1.461 5.477 1.985-6.315 4.148-12.481 5.792-18.834.925-3.58 1.981-7.16 3.06-10.715 2.025-6.67 4.387-13.236 5.861-20.072.453-2.103 1.18-4.171 2.008-6.16.56-1.344 1.01-2.61 1.031-4.102.009-.665.802-1.32 1.181-1.893h15.467c1.332 5.238 2.842 10.303 4.418 15.32.918 2.925 1.641 5.94 2.775 8.833 1.07 2.732 1.322 5.774 2.125 8.625.455 1.616 1.519 3.068 1.922 4.69 1.685 6.77 3.323 13.535 5.96 20.033.568 1.4-.312 3.357 1.824 4.369 1.039-5.764 2.776-11.431 4.479-17.033 1.935-6.37 3.134-12.931 5.388-19.232 1.982-5.543 2.742-11.511 4.484-17.156.853-2.765.446-6.09 3.316-8.398h18.777c-2.683 7.839-4.544 15.636-6.921 23.3-1.274 4.11-2.186 8.465-3.413 12.62-1.219 4.134-2.778 8.31-3.579 12.44-.813 4.193-2.854 7.915-3.426 12.179-.525 3.917-2.558 7.606-3.484 11.5-.971 4.089-1.939 8.157-3.341 12.124-.514 1.455-.749 3.009-1.121 4.557h-21.287c-2.45-1.41-.65-4.777-2.616-6.567-1.175-6.765-3.684-13.19-5.056-19.913-.773-3.781-2.111-7.446-3.191-11.164-1.253-4.313-2.524-8.622-3.743-12.945-.499-1.767-.884-3.566-1.552-6.296M66.86 154.02v-140c-9.64 0-19.107-.002-28.575.008-.642 0-1.344-.042-1.918.188-6.905 2.773-13.76 5.707-17.625 12.643-2.183 3.917-4.709 7.77-4.71 12.528-.004 29.799-.004 59.598.006 89.398 0 .973-.127 2.042.215 2.905 2.74 6.918 5.73 13.707 12.617 17.65 3.487 1.998 7.01 4.44 11.048 4.577 9.611.324 19.241.104 28.941.104M80.876.02v167.818c-1.08.055-2.337.172-3.594.174-11.826.014-23.653-.07-35.478.034-8.467.076-16.242-2.35-23.012-7.128-6.366-4.493-11.799-10.116-14.906-17.543-2.13-5.091-3.899-10.228-3.886-15.892.066-29.148.03-58.297.03-87.446 0-8.056 4.226-17.922 9.433-24.114 3.115-3.705 6.744-6.575 10.52-9.466 3.85-2.95 8.41-3.86 12.756-5.45 3.454-1.262 7.03-.98 10.583-.983C55.79.014 68.255.02 80.876.02M744.05 108.847V75.501l1.356-1.356h17.425v88.767h-17.409c-.377-.376-.729-.73-1.256-1.255v-33.404h-40.04v34.556h-18.984V74.22h18.868v34.628h40.04zM208.65 156.067c3.884-5.517 5.893-11.383 9.572-15.962 6.397 3.207 12.63 5.649 19.436 7.078 6.92 1.453 13.756.336 20.608.799 1.717.116 9.93-2.84 11.28-4.044 1.917-1.71 3.13-4.112 3.357-6.54.212-2.278-.923-4.048-3.298-5.614-3.018-1.991-6.232-2.852-9.503-3.67-1.958-.49-3.831-1.612-6.068-1.141-1.901.4-3.662-.823-5.542-1.133-3.555-.585-7.176-.99-10.685-1.852-3.454-.848-6.905-1.791-10.242-3.008-5.065-1.847-10.153-3.937-13.421-8.477-1.774-2.466-3.324-5.363-4.01-8.291-2.022-8.647 2.186-16.8 9.454-22.512 4.873-3.831 10.51-5.321 15.932-7.503 2.577-1.037 5.648-.994 8.51-1.133 3.656-.177 7.33.079 10.989-.074 4.43-.186 13.826 2.098 20.045 3.478 3.065.68 5.75 2.319 9.289 2.986-2.035 5.366-4.416 10.486-6.48 15.698-6.94-2.24-13.427-4.308-20.296-5.328-3.568-.53-7.12-1.061-10.593-.673-3.393.38-6.838.76-10.207 1.774-4.06 1.223-6.418 3.735-7.791 7.193.64 4.84 4.287 6.594 7.748 7.748 3.055 1.019 6.339 1.675 9.592 2.27 8.422 1.543 16.948 2.762 25.02 5.872 6.247 2.406 12.2 5.297 16.604 10.513 1.699 2.01 3.068 4.32 3.133 7.198.03 1.368.884 2.719.903 4.084.115 8.202-3.817 19.152-13.381 23.378-4.902 2.166-9.782 3.728-14.952 4.988-5.251 1.278-10.422.485-15.614.835-1.658.11-3.33.002-4.995.02-8.016.082-15.637-1.836-23.084-4.587-3.61-1.334-7.182-2.771-11.31-4.37M665.504 92.451l-14.755 12.791c-1.442-1.812-2.543-3.497-3.935-4.889-4.579-4.575-9.82-7.663-16.504-8.51-2.693-.34-5.066-.99-7.723.1-1.14.467-2.633.078-3.557.078-8.228 3.326-14.44 8.142-18.134 16.245-2.538 5.566-1.468 11.14-1.866 16.726 3.02 9.561 8.65 16.705 18.45 20.04 2.987 1.016 6.221 2.108 9.144 1.766 3.194-.375 6.664-.443 9.664-1.84 2.806-1.306 5.607-2.848 7.973-4.813 2.45-2.033 4.373-4.7 6.68-7.259l14.072 12.07v1.132c-1.237 1.704-2.399 3.618-3.863 5.262-3.958 4.445-15.988 12.226-23.776 13.827-6.757 1.39-13.45.9-20.1.624-3.816-.158-7.724-1.909-11.374-3.726-5.608-2.793-10.888-6.002-15.005-10.762-2.486-2.873-4.698-6.005-6.83-9.156-1.822-2.69-2.404-5.98-3.9-8.886-1.032-2-.826-4.65-1.127-7.014-.282-2.203-1.213-4.23-1.069-6.586.638-10.39 3.045-20.05 9.42-28.63 4.892-6.584 10.798-11.657 18.2-15.09 4.885-2.269 9.793-4.255 15.37-3.994 1.674.078 3.466-1.106 5.065-.848 6.463 1.044 13.04 1.395 19.146 4.417 5.993 2.967 11.625 6.41 15.18 10.36 1.702 1.89 3.158 4.002 5.154 6.565M490.115 93.196v-19.01h74.817v18.656h-26.157c-.324.287-.467.379-.562.507-.087.12-.175.28-.175.422-.008 22.62-.008 45.242-.008 67.662l-1.462 1.584H518.2V93.196h-28.087zM468.863 161.689l-1.236 1.236h-19.413V75.338l1.206-1.206h18.221l1.221 1.22zM728.11 22.513c-.241 5.24-.69 10.566 3.67 14.788 3.383 3.276 7.435 4.042 11.92 3.735 7.372-.503 13.162-8.622 12.246-15.57-.526-3.996-2.477-7.653-5.974-9.92-4.475-2.904-9.39-3.413-14.76-1.206-2.185 2.485-5.392 4.63-7.101 8.173m6.72 29.67c-13.843-8.299-9.625-4.014-17.618-17.388-.625-1.887-.215-3.542-.976-5.375-1.228-2.956.478-6.232 1.234-9.308 1.76-7.156 6.988-11.583 12.62-15.653 2.955-.368 5.386-2.538 8.478-2.444 1.164.036 2.337.088 3.494-.009 3.927-.332 7.602.452 10.945 2.517 3.189 1.97 6.88 3.406 8.362 7.337 5.61 5.66 6.299 12.866 5.49 20.105-.413 3.711-2.42 7.353-4.794 10.425-1.608 2.082-3.492 4.135-5.675 5.547-3.524 2.282-7.2 4.61-11.77 4.084-3.22 2.023-6.438-.85-9.79.161M571.202 49.35l-1.547 1.547h-8.5V3.237h9.48l22.224 29.271V4.673l1.575-1.527h8.472v47.658h-9.386l-22.318-30.166V49.35zM213.202 3.108h9.4l22.337 29.79V4.612l1.497-1.497h8.424v47.856c-2.552.121-5.32.011-8.485.063-8.192-9.34-14.897-20.149-23.158-30.23v30.033c-1.74.065-3.327.148-4.915.177-1.643.03-3.287.007-5.1.007V3.108zM336.203 3.108h9.617l22.21 29.57v-4.036c0-7.326-.003-14.651.004-21.976.002-1.307-.354-2.766 2.243-3.55h7.582V50.97c-2.55.124-5.317.012-8.627.067-7.38-9.866-14.953-19.994-23.168-30.978v30.866h-9.861V3.108zM653.106 40.02h13.183c.684-.386 1.207-.737 1.772-.992 8.756-3.96 10.493-13.503 3.889-21.521-1.733-2.103-4.373-3.192-7.003-3.404-3.91-.316-7.865-.082-11.841-.082v26zm-9.941 11v-48c7.097 0 14.142-.66 21.008.168 8.542 1.03 15.976 4.68 19.88 13.21.914 1.997 1.893 3.9 2.025 6.176.079 1.376 1.068 2.795.87 4.074-.62 3.99-.857 8.256-3.025 11.696-2 3.174-4.38 6.086-7.783 8.32-4.155 2.726-8.6 3.942-13.232 4.249-6.46.428-12.967.108-19.743.108zM486.206 3.115h35.419l1.25 1.251v7.31l-1.46 1.46h-25.274v8.852h24.794v8.86h-24.73c-.061 1.741-.14 3.34-.168 4.937-.028 1.64-.006 3.281-.006 5.082h25.347l1.517 1.52v7.27l-1.28 1.28h-35.41V3.114zM437.2 50.92h-9.77l-1.33-1.33V14.07h-13.97V3.195h38.586l1.189 1.235v8.216l-1.36 1.36H437.2V50.92zM290.206 4.346l1.192-1.192h9.266l1.279 1.279v45.544c-3.332 2.048-7.032.53-10.368 1.088l-1.37-1.368V4.346zM786.204 149.113h2.88l3.488 8.046 3.217-7.926h4.241c0 4.353.008 8.646-.019 12.94-.002.27-.286.538-.462.848-.304 0-.72.128-.94-.026-.534-.374-.977-.879-1.618-1.484v-6.179c-.91 1.96-1.753 3.031-1.85 4.167-.138 1.571-.272 2.896-2.208 3.623-2.659-1.03-1.67-4.407-3.675-6.27v4.663l-3.054 1.907v-14.309zM781.935 149.196v2.39l-4.026 1.512v10.217l-2.748-1.383v-9.734c-1.394-.105-2.643-.2-4.357-.328l1.25-2.674h9.88z"/><path d="M58.065 50.227c.001 4.86-1.248 8.403-4.163 11.508-3.26 3.476-7.558 5.002-11.807 5.052-3.868.045-8.072-1.179-11.08-4.303-3.317-3.443-5.153-7.398-5.05-12.396.19-9.403 7.484-15.828 16-15.896 7.477-.059 16.615 5.272 16.1 16.035"/></g></svg>
